src/sprites/svg/packaging.svg

<svg xmlns="http://www.w3.org/2000/svg" viewBox="0 0 39 39">
  <path d="M29.86 8.16C30.56 7.4 31 6.38 31 5.24 31 2.88 29.1 1 26.82 1c-1.74 0-5.74 2.6-7.34 4.92-1.65-2.33-5.64-4.85-7.3-4.85-2.3 0-4.2 1.9-4.2 4.25 0 1.1.42 2.08 1.08 2.83H1V18.3h2.2V38h32.6V18.32H38V8.16h-8.14zm-3.04-5.6c1.42 0 2.6 1.2 2.6 2.77 0 1.33-.93 2.47-2.13 2.7h-6.4c-.4-.1-.54-.26-.54-.34 0-1.35 4.72-5.13 6.46-5.13zm-14.65 0c1.65 0 6.46 3.8 6.46 5.13 0 .1-.28.25-.5.34h-6.42C10.5 7.8 9.6 6.66 9.6 5.34c0-1.52 1.18-2.77 2.6-2.77zm2.6 33.86h-10v-18.1h10v18.1zm0-19.6H2.57V9.74h12.2v7.08zm7.88 19.6h-6.3V9.72h6.3v26.7zm11.57 0h-10v-18.1h10v18.1zm2.2-19.6h-12.2V9.74h12.2v7.08z"/>
</svg>

<?xml version="1.0" encoding="utf-8"?>
<svg xmlns="http://www.w3.org/2000/svg"
	xmlns:xlink="http://www.w3.org/1999/xlink"
	viewBox="0 0 39 39">
<clipPath><path fillRule="evenodd" d="M-1 40C-1 40-1-1-1-1-1-1 40-1 40-1 40-1 40 40 40 40 40 40-1 40-1 40ZM 38 8.16C 38 8.16 29.86 8.16 29.86 8.16 30.56 7.4 31 6.38 31 5.24 31 2.88 29.11 0.99 26.82 0.99 25.08 0.99 21.08 3.59 19.48 5.92 17.83 3.59 13.84 1.07 12.17 1.07 9.89 1.07 7.99 2.96 7.99 5.32 7.99 6.41 8.4 7.4 9.06 8.15 9.06 8.15 0.99 8.15 0.99 8.15 0.99 8.15 0.99 18.31 0.99 18.31 0.99 18.31 3.2 18.31 3.2 18.31 3.2 18.31 3.2 38 3.2 38 3.2 38 14.78 38 14.78 38 14.78 38 24.22 38 24.22 38 24.22 38 35.8 38 35.8 38 35.8 38 35.8 18.32 35.8 18.32 35.8 18.32 38 18.32 38 18.32 38 18.32 38 8.16 38 8.16ZM 24.22 9.74C 24.22 9.74 36.43 9.74 36.43 9.74 36.43 9.74 36.43 16.82 36.43 16.82 36.43 16.82 36.42 16.82 36.42 16.82 36.42 16.82 24.22 16.82 24.22 16.82 24.22 16.82 24.22 9.74 24.22 9.74ZM 27.29 8.04C 27.29 8.04 20.9 8.04 20.9 8.04 20.49 7.92 20.36 7.77 20.36 7.69 20.36 6.35 25.08 2.57 26.82 2.57 28.24 2.57 29.42 3.75 29.42 5.33 29.42 6.66 28.49 7.8 27.29 8.04ZM 22.65 36.42C 22.65 36.42 16.35 36.42 16.35 36.42 16.35 36.42 16.35 9.73 16.35 9.73 16.35 9.73 22.65 9.73 22.65 9.73 22.65 9.73 22.65 36.42 22.65 36.42ZM 18.14 8.04C 18.14 8.04 11.71 8.04 11.71 8.04 10.51 7.8 9.58 6.66 9.58 5.33 9.57 3.82 10.76 2.57 12.17 2.57 13.82 2.57 18.63 6.35 18.63 7.69 18.63 7.81 18.35 7.95 18.14 8.04ZM 14.78 16.82C 14.78 16.82 14.77 16.82 14.77 16.82 14.77 16.82 2.57 16.82 2.57 16.82 2.57 16.82 2.57 9.74 2.57 9.74 2.57 9.74 14.78 9.74 14.78 9.74 14.78 9.74 14.78 16.82 14.78 16.82ZM 14.77 36.42C 14.77 36.42 4.77 36.42 4.77 36.42 4.77 36.42 4.77 18.32 4.77 18.32 4.77 18.32 14.77 18.32 14.77 18.32 14.77 18.32 14.77 36.42 14.77 36.42ZM 34.22 36.42C 34.22 36.42 24.22 36.42 24.22 36.42 24.22 36.42 24.22 18.32 24.22 18.32 24.22 18.32 34.22 18.32 34.22 18.32 34.22 18.32 34.22 36.42 34.22 36.42Z"/></clipPath><defs>
<symbol id="symbol0"><path fillRule="evenodd" d="M 29.86 8.16C 30.56 7.4 31 6.38 31 5.24 31 2.88 29.11 0.99 26.82 0.99 25.08 0.99 21.08 3.59 19.48 5.92 17.83 3.59 13.84 1.07 12.17 1.07 9.89 1.07 7.99 2.96 7.99 5.32 7.99 6.41 8.4 7.4 9.06 8.15 9.06 8.15 0.99 8.15 0.99 8.15 0.99 8.15 0.99 18.31 0.99 18.31 0.99 18.31 3.2 18.31 3.2 18.31 3.2 18.31 3.2 38 3.2 38 3.2 38 14.78 38 14.78 38 14.78 38 24.22 38 24.22 38 24.22 38 35.8 38 35.8 38 35.8 38 35.8 18.32 35.8 18.32 35.8 18.32 38 18.32 38 18.32 38 18.32 38 8.16 38 8.16 38 8.16 29.86 8.16 29.86 8.16ZM 26.82 2.57C 28.24 2.57 29.42 3.75 29.42 5.33 29.42 6.66 28.49 7.8 27.29 8.04 27.29 8.04 20.9 8.04 20.9 8.04 20.49 7.92 20.36 7.77 20.36 7.69 20.36 6.35 25.08 2.57 26.82 2.57ZM 12.17 2.57C 13.82 2.57 18.63 6.35 18.63 7.69 18.63 7.81 18.35 7.95 18.14 8.04 18.14 8.04 11.71 8.04 11.71 8.04 10.51 7.8 9.58 6.66 9.58 5.33 9.57 3.82 10.76 2.57 12.17 2.57ZM 14.77 36.42C 14.77 36.42 4.77 36.42 4.77 36.42 4.77 36.42 4.77 18.32 4.77 18.32 4.77 18.32 14.77 18.32 14.77 18.32 14.77 18.32 14.77 36.42 14.77 36.42ZM 14.77 16.82C 14.77 16.82 2.57 16.82 2.57 16.82 2.57 16.82 2.57 9.74 2.57 9.74 2.57 9.74 14.78 9.74 14.78 9.74 14.78 9.74 14.78 16.82 14.78 16.82 14.78 16.82 14.77 16.82 14.77 16.82ZM 22.65 36.42C 22.65 36.42 16.35 36.42 16.35 36.42 16.35 36.42 16.35 9.73 16.35 9.73 16.35 9.73 22.65 9.73 22.65 9.73 22.65 9.73 22.65 36.42 22.65 36.42ZM 34.22 36.42C 34.22 36.42 24.22 36.42 24.22 36.42 24.22 36.42 24.22 18.32 24.22 18.32 24.22 18.32 34.22 18.32 34.22 18.32 34.22 18.32 34.22 36.42 34.22 36.42ZM 36.42 16.82C 36.42 16.82 24.22 16.82 24.22 16.82 24.22 16.82 24.22 9.74 24.22 9.74 24.22 9.74 36.43 9.74 36.43 9.74 36.43 9.74 36.43 16.82 36.43 16.82 36.43 16.82 36.42 16.82 36.42 16.82Z"/></symbol></defs>
<g><use xlink:href="#symbol0" x="0" y="0"/><use xlink:href="#symbol0" x="0" y="0" width="39" height="39" fill="none" stroke-width="1.00px" clip-path="url(#clip0)"/></g></svg>
